X: 1847
T: Ari's Dance
R: reel
M: 4/4
K: Gmajor
~B3G AGFG|DFdc BGGA|BGBd cAFA|DGGF G3A|
~B3G AGFA|DFdc BGGA|Bd~d2 ecAF|DGGF G3A|
BddB cege|dB~B2 GBAE|BddB cega|fddc BGGA|
BddB cege|dB~B2 GBAE|Bd~d2 ecAF|DGGF G3A|

